X:1
T: Cuffe Street
C:
R:Reel
Q: 232
K:Em
M:4/4
L:1/8
|:dc|BE ((3EEE) BA FA|dB AF DF Ac|BE ((3EEE) BA FA|dB AF E2 dc|
BE ((3EEE) BA FA|dB AF DF Ac|BE ((3EEE) BA FA|dB AF E2 FE|
DF A^c dc dA|((3B^cd) Ad ((3Bcd) Ad|DF A^c df ec|((3B^cd) AF E2 FE|
DF A^c dc dA|((3B^cd) Ad ((3Bcd) Ad|fe d^c dc BA|Bd AF E2:|
